X:1
T: Polka [18]
S:Jean Pole o' Waas (Stove, Walls, Shetland, 1880-1965)
M:C
L:1/8
R:Polka
K:G
|:Bcde dBcA|B2G2 GFGB|A2E2F2D2|G2G2 GF G2|
Bcde dBcA|B2 G2 GFGB|A2E2F2D2|1G2G2G4:|2 G2G2G2 Bc||
|:d2g2B2g2|f2 AB cB A2|[E2A2]a2f2a2|g2 Bc dcBc|
d2g2B2g2|f2 AB cB A2|D2a2  e2f2|g2g2g4:|]

